X: 38
T: 2D Or Not 2D
R: mazurka
M: 3/4
K: Dmajor
|:d>e|f2 f>d A>F|G2 B2 d2|A>c e>A c>e|d>c d>e f>=f|
f2 f>d A>F|G2 B>G d>G|c>A e>A c>e|d2 D>A:|
^G>A|F>D A>D B>D|G>B D>G B>d|c>A e>A f>A|d>f A>d (3GFE|
D>F A>D (3=cBA|G>D B>D d>D|c>A e>g (3ABc|d2 D>A ^G>A|
F2 A>D B>D|G2 D>G B>d|c2 e>A f>A|d2 A>d (3gfe|
d>f A>d (3=cBA|G>d (3Bcd G2|c>A e>g (3ABc|d2 D2||

